pro/src/icons/full-left.svg

<svg width="48" height="48" viewBox="0 0 48 48" fill="none" xmlns="http://www.w3.org/2000/svg">
<path id="icon" fill="currentColor" d="M31.34 5.66256C32.216 6.54962 32.2206 7.99216 31.3502 8.88493L16.6297 23.985L31.3329 39.1196L31.3353 39.1222C32.2017 40.019 32.191 41.4617 31.311 42.3447C30.4312 43.2276 29.0158 43.2169 28.149 42.3213L28.148 42.3203L13.1749 26.9077L13.1722 26.9049C11.6154 25.2934 11.6002 22.6722 13.1812 21.0548L13.182 21.0539L28.1764 5.67293C29.0471 4.77976 30.4637 4.77511 31.34 5.66256Z"/>
</svg>

<svg xmlns="http://www.w3.org/2000/svg" width="48" height="48" fill="none"><path id="icon" fill="currentColor" d="M31.34 5.663c.876.887.88 2.33.01 3.222l-14.72 15.1L31.333 39.12l.002.002a2.31 2.31 0 0 1-.024 3.223 2.207 2.207 0 0 1-3.162-.024h-.001L13.175 26.907l-.003-.003c-1.557-1.612-1.572-4.233.01-5.85v-.001L28.176 5.673a2.207 2.207 0 0 1 3.164-.01"/></svg>
